src/assets/icons/setting.svg

<svg xmlns="http://www.w3.org/2000/svg" viewBox="0 0 24 24" fill="currentColor"><path d="M12 1L21.5 6.5V17.5L12 23L2.5 17.5V6.5L12 1ZM12 3.311L4.5 7.65311V16.3469L12 20.689L19.5 16.3469V7.65311L12 3.311ZM12 16C9.79086 16 8 14.2091 8 12C8 9.79086 9.79086 8 12 8C14.2091 8 16 9.79086 16 12C16 14.2091 14.2091 16 12 16ZM12 14C13.1046 14 14 13.1046 14 12C14 10.8954 13.1046 10 12 10C10.8954 10 10 10.8954 10 12C10 13.1046 10.8954 14 12 14Z"></path></svg>

<svg xmlns="http://www.w3.org/2000/svg" viewBox="0 0 24 24" fill="currentColor"><path d="m12 1 9.5 5.5v11L12 23l-9.5-5.5v-11L12 1zm0 2.311L4.5 7.653v8.694l7.5 4.342 7.5-4.342V7.653L12 3.311zM12 16a4 4 0 1 1 0-8 4 4 0 0 1 0 8zm0-2a2 2 0 1 0 0-4 2 2 0 0 0 0 4z"/></svg>
